img/icons/Xd.svg

<svg width="56" height="56" viewBox="0 0 56 56" fill="none" xmlns="http://www.w3.org/2000/svg">
<circle cx="28" cy="28" r="22" fill="#C4C4C4" fill-opacity="0.4"/>
<path d="M41 41H16V16H41V41Z" fill="#FF80E4"/>
<path d="M41 41H28.5V16H41V41Z" fill="#FF80E4"/>
<path d="M39.5352 39.5352H17.4648V17.4648H39.5352V39.5352Z" fill="#7F1363"/>
<path d="M39.5352 39.5352H28.5V17.4648H39.5352V39.5352Z" fill="#7F1363"/>
<path d="M23.1514 24.8672L25.2256 27.9609L27.2881 24.8672H29.0342L26.0693 29.0859L28.9404 33.1875H27.1943L25.2256 30.2109L23.2452 33.1875H21.4874L24.3584 29.0859L21.3936 24.8672H23.1514Z" fill="#FF80E4"/>
<path d="M31.9053 33.3047C30.1025 33.3047 28.9873 31.802 28.9873 30.1172C28.9873 28.207 30.2734 26.9414 31.7295 26.9414C32.963 26.9414 33.6004 27.7734 33.8037 28.125V24.6328H35.374V31.3828C35.374 31.5469 35.6043 31.8439 35.7373 31.8516V33.1875C35.4637 33.2421 35.241 33.2695 35.0692 33.2695C33.9354 33.2695 34.038 32.1211 34.038 32.1211C33.8114 32.5119 33.1359 33.3047 31.9053 33.3047ZM32.3155 31.9688C33.3008 31.9688 33.749 31.086 33.8037 30.9375V29.4727C33.7411 29.3009 33.1787 28.2774 32.2217 28.2774C31.1523 28.2774 30.6163 29.3382 30.6163 30.1524C30.6163 31.0472 31.2744 31.9688 32.3155 31.9688Z" fill="#FF80E4"/>
<path d="M28.5 24.8672V25.6274L29.0342 24.8672H28.5Z" fill="#FF80E4"/>
<path d="M28.5 33.1874H28.9405L28.5 32.5581V33.1874Z" fill="#FF80E4"/>
<path d="M2.62338 16.1667C0.0383901 21.7102 -0.660256 27.9477 0.634237 33.9258C1.92873 39.9039 5.14514 45.2936 9.79184 49.2712C14.4385 53.2488 20.2599 55.5954 26.3661 55.9523C32.4723 56.3092 38.5274 54.6568 43.6059 51.2477C48.6843 47.8386 52.5068 42.8603 54.489 37.0738C56.4712 31.2873 56.504 25.0109 54.5825 19.2039C52.661 13.3969 48.8908 8.37892 43.8483 4.91685C38.8058 1.45478 32.7683 -0.260865 26.6587 0.0321455L26.864 4.31213C32.0386 4.06396 37.1521 5.51706 41.423 8.44932C45.6938 11.3816 48.8871 15.6317 50.5145 20.55C52.142 25.4683 52.1142 30.7842 50.4353 35.6852C48.7565 40.5862 45.519 44.8027 41.2177 47.6901C36.9163 50.5775 31.7879 51.977 26.6161 51.6747C21.4444 51.3724 16.5139 49.3849 12.5783 46.016C8.64267 42.6471 5.91847 38.0822 4.82208 33.019C3.72569 27.9557 4.31742 22.6728 6.50682 17.9776L2.62338 16.1667Z" fill="#3B5999"/>
</svg>

<svg width="56" height="56" fill="none" xmlns="http://www.w3.org/2000/svg"><circle cx="28" cy="28" r="22" fill="#C4C4C4" fill-opacity=".4"/><path d="M41 41H16V16h25v25z" fill="#FF80E4"/><path d="M41 41H28.5V16H41v25z" fill="#FF80E4"/><path d="M39.535 39.535h-22.07v-22.07h22.07v22.07z" fill="#7F1363"/><path d="M39.535 39.535H28.5v-22.07h11.035v22.07z" fill="#7F1363"/><path d="M23.151 24.867l2.075 3.094 2.062-3.094h1.746l-2.965 4.219 2.871 4.102h-1.746l-1.968-2.977-1.98 2.977h-1.759l2.871-4.102-2.964-4.219h1.757zm8.754 8.438c-1.803 0-2.918-1.503-2.918-3.188 0-1.91 1.286-3.176 2.743-3.176a2.38 2.38 0 012.074 1.184v-3.492h1.57v6.75c0 .164.23.46.363.469v1.335a3.57 3.57 0 01-.668.083c-1.134 0-1.031-1.149-1.031-1.149a2.454 2.454 0 01-2.133 1.184zm.41-1.336c.986 0 1.434-.883 1.489-1.032v-1.464c-.063-.172-.625-1.196-1.582-1.196-1.07 0-1.606 1.061-1.606 1.875 0 .895.658 1.817 1.7 1.817z" fill="#FF80E4"/><path d="M28.5 24.867v.76l.534-.76H28.5zm0 8.32h.44l-.44-.629v.63z" fill="#FF80E4"/><path d="M2.623 16.167A28 28 0 1026.66.032l.205 4.28A23.715 23.715 0 116.507 17.978l-3.884-1.811z" fill="#3B5999"/></svg>
